dist/flags/m/226.svg

<svg width="20" height="15" viewBox="0 0 20 15" fill="none" xmlns="http://www.w3.org/2000/svg">
<mask id="mask0" mask-type="alpha" maskUnits="userSpaceOnUse" x="0" y="0" width="20" height="15">
<rect width="20" height="15" fill="white"/>
</mask>
<g mask="url(#mask0)">
<path fill-rule="evenodd" clip-rule="evenodd" d="M0 0V15.36H20.48V0H0Z" fill="#F7FCFF"/>
<mask id="mask1" mask-type="alpha" maskUnits="userSpaceOnUse" x="0" y="0" width="21" height="16">
<path fill-rule="evenodd" clip-rule="evenodd" d="M0 0V15.36H20.48V0H0Z" fill="white"/>
</mask>
<g mask="url(#mask1)">
<path fill-rule="evenodd" clip-rule="evenodd" d="M0 0V5.12H20.48V0H0Z" fill="#009D00"/>
<path fill-rule="evenodd" clip-rule="evenodd" d="M0 5.12V10.24H20.48V5.12H0Z" fill="white"/>
<path fill-rule="evenodd" clip-rule="evenodd" d="M0 10.24V15.36H20.48V10.24H0Z" fill="#F80000"/>
</g>
<path fill-rule="evenodd" clip-rule="evenodd" d="M0 0V15.36L5.12 7.77725L0 0Z" fill="#0075D5"/>
<mask id="mask2" mask-type="alpha" maskUnits="userSpaceOnUse" x="0" y="0" width="6" height="16">
<path fill-rule="evenodd" clip-rule="evenodd" d="M0 0V15.36L5.12 7.77725L0 0Z" fill="white"/>
</mask>
<g mask="url(#mask2)">
</g>
<path d="M9.3258 5.68898L9.31554 5.6913L9.30782 5.68416L9.1815 5.56746L9.16571 5.73871L9.16474 5.74918L9.15557 5.75432L9.00555 5.8384L9.16354 5.90634L9.1732 5.91049L9.17525 5.9208L9.20885 6.08946L9.32229 5.9602L9.32922 5.9523L9.33966 5.95353L9.51045 5.97369L9.42257 5.82587L9.4172 5.81683L9.4216 5.80728L9.49355 5.65108L9.3258 5.68898Z" fill="#FFD500" stroke="black" stroke-width="0.04"/>
<path d="M9.96581 5.68898L9.95556 5.6913L9.94783 5.68416L9.82151 5.56746L9.80572 5.73871L9.80476 5.74918L9.79559 5.75432L9.64556 5.8384L9.80355 5.90634L9.81321 5.91049L9.81527 5.9208L9.84887 6.08946L9.9623 5.9602L9.96924 5.9523L9.97968 5.95353L10.1505 5.97369L10.0626 5.82587L10.0572 5.81683L10.0616 5.80728L10.1336 5.65108L9.96581 5.68898Z" fill="#FFD500" stroke="black" stroke-width="0.04"/>
<path d="M10.6058 5.68898L10.5956 5.6913L10.5878 5.68416L10.4615 5.56746L10.4457 5.73871L10.4448 5.74918L10.4356 5.75432L10.2856 5.8384L10.4436 5.90634L10.4532 5.91049L10.4553 5.9208L10.4889 6.08946L10.6023 5.9602L10.6093 5.9523L10.6197 5.95353L10.7905 5.97369L10.7026 5.82587L10.6972 5.81683L10.7016 5.80728L10.7736 5.65108L10.6058 5.68898Z" fill="#FFD500" stroke="black" stroke-width="0.04"/>
<path d="M11.2458 5.68898L11.2355 5.6913L11.2278 5.68416L11.1015 5.56746L11.0857 5.73871L11.0847 5.74918L11.0756 5.75432L10.9255 5.8384L11.0835 5.90634L11.0932 5.91049L11.0952 5.9208L11.1288 6.08946L11.2423 5.9602L11.2492 5.9523L11.2596 5.95353L11.4304 5.97369L11.3426 5.82587L11.3372 5.81683L11.3416 5.80728L11.4135 5.65108L11.2458 5.68898Z" fill="#FFD500" stroke="black" stroke-width="0.04"/>
<path d="M11.8858 5.68898L11.8755 5.6913L11.8678 5.68416L11.7415 5.56746L11.7257 5.73871L11.7247 5.74918L11.7156 5.75432L11.5655 5.8384L11.7235 5.90634L11.7332 5.91049L11.7352 5.9208L11.7689 6.08946L11.8823 5.9602L11.8892 5.9523L11.8997 5.95353L12.0705 5.97369L11.9826 5.82587L11.9772 5.81683L11.9816 5.80728L12.0535 5.65108L11.8858 5.68898Z" fill="#FFD500" stroke="black" stroke-width="0.04"/>
<path d="M12.5258 5.68898L12.5156 5.6913L12.5078 5.68416L12.3815 5.56746L12.3657 5.73871L12.3648 5.74918L12.3556 5.75432L12.2056 5.8384L12.3635 5.90634L12.3732 5.91049L12.3753 5.9208L12.4089 6.08946L12.5223 5.9602L12.5292 5.9523L12.5397 5.95353L12.7105 5.97369L12.6226 5.82587L12.6172 5.81683L12.6216 5.80728L12.6936 5.65108L12.5258 5.68898Z" fill="#FFD500" stroke="black" stroke-width="0.04"/>
<path d="M9.63998 6.44002H12.12V8.32002C12.12 9.00486 11.5648 9.56002 10.88 9.56002C10.1951 9.56002 9.63998 9.00486 9.63998 8.32002V6.44002Z" stroke="#373737" stroke-width="0.08"/>
<path fill-rule="evenodd" clip-rule="evenodd" d="M10.7049 7.65434C10.7049 7.65434 10.5758 9.16812 10.4469 9.25986C10.3181 9.3516 11.0645 9.39741 11.1358 9.32864C11.2071 9.25986 10.8103 8.02632 10.9468 7.65434C11.0833 7.28237 11.3032 7.25222 11.3032 7.25222C11.3032 7.25222 11.026 7.19364 10.9468 7.30525C10.8676 7.41687 10.6314 7.25222 10.6314 7.25222L10.7049 7.65434Z" fill="#6F3E1D"/>
<path fill-rule="evenodd" clip-rule="evenodd" d="M10.6767 7.56881H10.5773C10.5773 7.56881 10.5101 7.83168 10.3559 7.70025C10.2016 7.56881 9.98401 7.61514 9.98401 7.61514C9.98401 7.61514 10.0035 7.45783 10.2403 7.3953C10.4772 7.33276 10.5773 6.82497 10.5773 6.82497C10.5773 6.82497 10.9125 6.70022 11.1163 6.95586C11.3202 7.21149 11.6074 7.10243 11.6074 7.10243C11.6074 7.10243 11.8174 7.22179 11.7124 7.3953C11.6074 7.56881 11.4284 7.69574 11.2724 7.56881C11.1163 7.44188 10.6767 7.56881 10.6767 7.56881Z" fill="#009D29"/>
</g>
</svg>

<svg width="20" height="15" fill="none" xmlns="http://www.w3.org/2000/svg">
  <mask id="a" maskUnits="userSpaceOnUse" x="0" y="0" width="20" height="15">
    <path fill="#fff" d="M0 0h20v15H0z"/>
  </mask>
  <g mask="url(#a)">
    <path fill-rule="evenodd" clip-rule="evenodd" d="M0 0v15.36h20.48V0H0z" fill="#F7FCFF"/>
    <mask id="b" maskUnits="userSpaceOnUse" x="0" y="0" width="21" height="16">
      <path fill-rule="evenodd" clip-rule="evenodd" d="M0 0v15.36h20.48V0H0z" fill="#fff"/>
    </mask>
    <g mask="url(#b)" fill-rule="evenodd" clip-rule="evenodd">
      <path d="M0 0v5.12h20.48V0H0z" fill="#009D00"/>
      <path d="M0 5.12v5.12h20.48V5.12H0z" fill="#fff"/>
      <path d="M0 10.24v5.12h20.48v-5.12H0z" fill="#F80000"/>
    </g>
    <path fill-rule="evenodd" clip-rule="evenodd" d="M0 0v15.36l5.12-7.583L0 0z" fill="#0075D5"/>
    <path d="M9.326 5.689l-.01.002-.008-.007-.126-.117-.016.172-.001.01-.01.005-.15.084.159.068.01.004.001.01.034.17.113-.13.007-.008.01.002.171.02-.087-.148-.006-.01.005-.009.072-.156-.168.038zm.64 0l-.01.002-.008-.007-.126-.117-.016.172-.001.01-.01.005-.15.084.159.068.01.004.001.01.034.17.113-.13.007-.008.01.002.171.02-.087-.148-.006-.01.005-.009.072-.156-.168.038zm.64 0l-.01.002-.008-.007-.127-.117-.015.172-.001.01-.01.005-.15.084.159.068.01.004.001.01.034.17.113-.13.007-.008.01.002.171.02-.087-.148-.006-.01.005-.009.072-.156-.168.038zm.64 0l-.01.002-.008-.007-.127-.117-.015.172-.001.01-.01.005-.15.084.159.068.01.004.001.01.034.17.113-.13.007-.008.01.002.171.02-.087-.148-.006-.01.005-.009.072-.156-.168.038zm.64 0l-.01.002-.008-.007-.127-.117-.015.172-.001.01-.01.005-.15.084.159.068.01.004.001.01.034.17.113-.13.007-.008.01.002.171.02-.087-.148-.006-.01.005-.009.072-.156-.168.038zm.64 0l-.01.002-.008-.007-.126-.117-.016.172-.001.01-.01.005-.15.084.159.068.01.004.001.01.034.17.113-.13.007-.008.01.002.171.02-.087-.148-.006-.01.005-.009.072-.156-.168.038z" fill="#FFD500" stroke="#000" stroke-width=".04"/>
    <path d="M9.64 6.44h2.48v1.88a1.24 1.24 0 01-2.48 0V6.44z" stroke="#373737" stroke-width=".08"/>
    <path fill-rule="evenodd" clip-rule="evenodd" d="M10.705 7.654s-.13 1.514-.258 1.606c-.129.092.618.137.689.069.071-.07-.326-1.303-.19-1.675.137-.372.357-.402.357-.402s-.277-.058-.356.053c-.08.112-.316-.053-.316-.053l.074.402z" fill="#6F3E1D"/>
    <path fill-rule="evenodd" clip-rule="evenodd" d="M10.677 7.569h-.1s-.067.263-.221.131c-.154-.131-.372-.085-.372-.085s.02-.157.256-.22c.237-.062.337-.57.337-.57s.335-.125.54.13c.203.256.49.147.49.147s.21.12.105.293c-.105.174-.284.3-.44.174-.156-.127-.595 0-.595 0z" fill="#009D29"/>
  </g>
</svg>
